X: 29449
T: Night In Newtown, The
R: reel
M: 4/4
K: Edorian
|:BE (3E^DE B,EGB|AD (3D^CD A,DFA|BE (3E^DE BABd|egfe dBAd|
BE (3E^DE B,EGB|AD (3D^CD A,DFA|BE (3E^DE BABd|1 egfe dBA2:|2 egfe dBAB||
|:e2ge bege|d2 (3fed ad (3fed|e2ge bege|defa geef|
gfga bgaf|gfed edBd|(3efg fe dfe^c|dBAF GEE2:|

